build/service/SmallCloseSolid.svg

<svg xmlns="http://www.w3.org/2000/svg" fill="none" viewBox="0 0 24 24" focusable="false"><path d="M0 0H24V24H0z"/><path fill="#74767B" fill-rule="evenodd" d="M12 3C7.02944 3 3 7.02944 3 12C3 16.9706 7.02944 21 12 21C16.9706 21 21 16.9706 21 12C21 7.02944 16.9706 3 12 3ZM14.8197 9.19899C15.0665 9.4575 15.0589 9.86899 14.8028 10.1181L12.928 11.9415L14.8028 13.7649C15.0589 14.014 15.0665 14.4254 14.8197 14.6839C14.573 14.9425 14.1653 14.9501 13.9092 14.701L12 12.8441L10.0907 14.701C9.83463 14.9501 9.42698 14.9425 9.18021 14.6839C8.93344 14.4254 8.94101 14.014 9.19711 13.7649L11.0719 11.9415L9.19714 10.1181C8.94104 9.86899 8.93347 9.4575 9.18024 9.19899C9.427 8.94048 9.83466 8.93284 10.0908 9.18193L12 11.0388L13.9092 9.18193C14.1653 8.93284 14.5729 8.94048 14.8197 9.19899Z"/></svg>

<svg xmlns="http://www.w3.org/2000/svg" fill="none" viewBox="0 0 24 24" focusable="false"><path fill="#74767B" fill-rule="evenodd" d="M12 3c-4.98 0-9 4.02-9 9 0 4.97 4.02 9 9 9a9 9 0 0 0 9-9c0-4.98-4.03-9-9-9m2.81 6.19c.25.26.24.67-.01.92l-1.88 1.83 1.88 1.82c.25.25.26.66.01.92-.24.26-.65.27-.91.02L12 12.84l-1.91 1.86c-.26.25-.67.24-.91-.02a.66.66 0 0 1 .01-.92l1.88-1.82-1.88-1.83a.66.66 0 0 1-.01-.92c.24-.25.65-.26.91-.01L12 11.03l1.9-1.85c.26-.25.67-.24.91.01"/></svg>
